X:2343
T:Butter Side Up
S:Andy Hornby
R:Slip jig
O:England
N:1988
M:9/8
C:Andy Hornby
A:Lancaster
K:D
A | dcd A2F D2d | Bcd efd cBA | \
dcd A2F D2d | Bcd edc d2 :|*
|:e | fgf dcd A2d |efe cBc A2e | \
dcd BdB G2B | Agf edc d2 :|**
W:Copyright Andy Hornby
